Newaita-dark/apps/24/org.gnome.Eolie-symbolic.svg

<svg height="24" viewBox="0 0 24 24" width="24" xmlns="http://www.w3.org/2000/svg"><g fill="#424242"><path d="m11.90625 2.152344c-.230469 0-.433594.15625-.496094.378906l-1.578125 5.679688c.605469-.367188 1.3125-.582032 2.074219-.582032s1.472656.214844 2.074219.582032l-1.578125-5.679688c-.0625-.222656-.265625-.378906-.496094-.378906zm-3.386719 7.371094-5.679687 1.578124c-.503906.140626-.503906.851563 0 .992188l5.679687 1.578125c-.367187-.601563-.582031-1.3125-.582031-2.074219 0-.761718.214844-1.46875.582031-2.074218zm6.777344 0c.367187.605468.578125 1.3125.578125 2.074218 0 .761719-.210938 1.472656-.578125 2.074219l5.679687-1.578125c.222657-.0625.375-.265625.375-.496094 0-.230468-.152343-.433594-.375-.496094zm-5.464844 5.464843 1.578125 5.679688c.140625.5.851563.5.992188 0l1.578125-5.679688c-.601563.367188-1.3125.578125-2.074219.578125s-1.46875-.210937-2.074219-.578125zm0 0"/><path d="m6.640625 5.820312c-.394531.003907-.640625.429688-.441406.773438l1.433593 2.476562c-.4375.738282-.6875 1.605469-.6875 2.527344 0 .925782.25 1.789063.6875 2.53125l-1.433593 2.472656c-.117188.203126-.082031.457032.082031.625.164062.164063.417969.195313.621094.078126l2.476562-1.433594c.738282.4375 1.605469.6875 2.527344.6875.925781 0 1.789062-.25 2.53125-.6875l2.472656 1.433594c.203125.117187.457032.085937.625-.078126.164063-.167968.195313-.421874.078125-.625l-1.433593-2.472656c.4375-.742187.6875-1.605468.6875-2.53125 0-.921875-.25-1.789062-.6875-2.527344l1.433593-2.476562c.199219-.34375-.046875-.773438-.445312-.773438-.089844.003907-.179688.027344-.257813.070313l-2.472656 1.433594c-.742188-.4375-1.605469-.6875-2.53125-.6875-.921875 0-1.789062.25-2.527344.6875l-2.476562-1.433594c-.074219-.042969-.160156-.066406-.246094-.070313-.003906 0-.011719 0-.015625 0zm5.265625 1.808594c2.199219 0 3.96875 1.769532 3.96875 3.96875 0 2.199219-1.769531 3.96875-3.96875 3.96875s-3.96875-1.769531-3.96875-3.96875c0-2.199218 1.769531-3.96875 3.96875-3.96875zm0 0"/><path d="m11.90625 9.613281c1.097656 0 1.984375.890625 1.984375 1.984375 0 1.097656-.886719 1.984375-1.984375 1.984375-1.09375 0-1.984375-.886719-1.984375-1.984375 0-1.09375.890625-1.984375 1.984375-1.984375zm0 0"/></g></svg>

<?xml version="1.0" encoding="UTF-8"?>
<svg xmlns="http://www.w3.org/2000/svg" xmlns:xlink="http://www.w3.org/1999/xlink" width="24px" height="24px" viewBox="0 0 24 24" version="1.1">
<g id="surface1">
<path style=" stroke:none;fill-rule:nonzero;fill:rgb(25.882354%,25.882354%,25.882354%);fill-opacity:1;" d="M 11.90625 2.152344 C 11.675781 2.152344 11.472656 2.308594 11.410156 2.53125 L 9.832031 8.210938 C 10.4375 7.84375 11.144531 7.628906 11.90625 7.628906 C 12.667969 7.628906 13.378906 7.84375 13.980469 8.210938 L 12.402344 2.53125 C 12.339844 2.308594 12.136719 2.152344 11.90625 2.152344 Z M 8.519531 9.523438 L 2.839844 11.101562 C 2.335938 11.242188 2.335938 11.953125 2.839844 12.09375 L 8.519531 13.671875 C 8.152344 13.070312 7.9375 12.359375 7.9375 11.597656 C 7.9375 10.835938 8.152344 10.128906 8.519531 9.523438 Z M 15.296875 9.523438 C 15.664062 10.128906 15.875 10.835938 15.875 11.597656 C 15.875 12.359375 15.664062 13.070312 15.296875 13.671875 L 20.976562 12.09375 C 21.199219 12.03125 21.351562 11.828125 21.351562 11.597656 C 21.351562 11.367188 21.199219 11.164062 20.976562 11.101562 Z M 9.832031 14.988281 L 11.410156 20.667969 C 11.550781 21.167969 12.261719 21.167969 12.402344 20.667969 L 13.980469 14.988281 C 13.378906 15.355469 12.667969 15.566406 11.90625 15.566406 C 11.144531 15.566406 10.4375 15.355469 9.832031 14.988281 Z M 9.832031 14.988281 "/>
<path style=" stroke:none;fill-rule:nonzero;fill:rgb(25.882354%,25.882354%,25.882354%);fill-opacity:1;" d="M 6.640625 5.820312 C 6.246094 5.824219 6 6.25 6.199219 6.59375 L 7.632812 9.070312 C 7.195312 9.808594 6.945312 10.675781 6.945312 11.597656 C 6.945312 12.523438 7.195312 13.386719 7.632812 14.128906 L 6.199219 16.601562 C 6.082031 16.804688 6.117188 17.058594 6.28125 17.226562 C 6.445312 17.390625 6.699219 17.421875 6.902344 17.304688 L 9.378906 15.871094 C 10.117188 16.308594 10.984375 16.558594 11.90625 16.558594 C 12.832031 16.558594 13.695312 16.308594 14.4375 15.871094 L 16.910156 17.304688 C 17.113281 17.421875 17.367188 17.390625 17.535156 17.226562 C 17.699219 17.058594 17.730469 16.804688 17.613281 16.601562 L 16.179688 14.128906 C 16.617188 13.386719 16.867188 12.523438 16.867188 11.597656 C 16.867188 10.675781 16.617188 9.808594 16.179688 9.070312 L 17.613281 6.59375 C 17.8125 6.25 17.566406 5.820312 17.167969 5.820312 C 17.078125 5.824219 16.988281 5.847656 16.910156 5.890625 L 14.4375 7.324219 C 13.695312 6.886719 12.832031 6.636719 11.90625 6.636719 C 10.984375 6.636719 10.117188 6.886719 9.378906 7.324219 L 6.902344 5.890625 C 6.828125 5.847656 6.742188 5.824219 6.65625 5.820312 C 6.652344 5.820312 6.644531 5.820312 6.640625 5.820312 Z M 11.90625 7.628906 C 14.105469 7.628906 15.875 9.398438 15.875 11.597656 C 15.875 13.796875 14.105469 15.566406 11.90625 15.566406 C 9.707031 15.566406 7.9375 13.796875 7.9375 11.597656 C 7.9375 9.398438 9.707031 7.628906 11.90625 7.628906 Z M 11.90625 7.628906 "/>
<path style=" stroke:none;fill-rule:nonzero;fill:rgb(25.882354%,25.882354%,25.882354%);fill-opacity:1;" d="M 11.90625 9.613281 C 13.003906 9.613281 13.890625 10.503906 13.890625 11.597656 C 13.890625 12.695312 13.003906 13.582031 11.90625 13.582031 C 10.8125 13.582031 9.921875 12.695312 9.921875 11.597656 C 9.921875 10.503906 10.8125 9.613281 11.90625 9.613281 Z M 11.90625 9.613281 "/>
</g>
</svg>
